assets/static/logos/jijantes-fc-inverse.svg

<svg xmlns="http://www.w3.org/2000/svg" width="476" height="600" fill="none"><g clip-path="url(#a)"><path fill="#fff" d="M415.56 376.56v4.2c0 3.58-1.38 4.75-3.92 4.75h-4.34V370.7h3.38c3.44 0 4.89 1.38 4.89 5.86h-.01Zm60.13-27.72v40.4c-10.59 0-19.17 8.58-19.17 19.17h-17.77c-8.25 53.81-40.7 101.77-88.81 129.11L237.85 599.2 128 536.87c-48.85-26.85-81.95-74.49-90.77-128.46H19.17c0-10.59-8.58-19.17-19.17-19.17v-40.4c10.24 0 18.58-8.03 19.12-18.14-1.04-.82-2.05-1.68-2.99-2.62a34.047 34.047 0 0 1-7.11-10.43c-1.79-4.08-2.7-8.46-2.7-13.01V183.33h28.54v-86.6l72.23-15.63c2.17-4.36 4.57-8.66 7.21-12.87C157.11.11 247.37-20.48 315.49 22.34c23.62 14.84 41.51 35.4 53.04 58.75l72.3 15.65v86.96c2.95.41 5.8 1.17 8.48 2.34 3.99 1.75 7.52 4.19 10.48 7.25 2.87 2.97 5.18 6.43 6.88 10.3 1.79 4.08 2.71 8.46 2.71 13.01v88.04c0 4.55-.92 8.93-2.71 13.02-1.69 3.85-4 7.32-6.87 10.28-1 1.04-2.1 1.98-3.23 2.87.59 10.05 8.91 18.03 19.12 18.03Zm-64.61-161.72c.7-.37 1.4-.76 2.13-1.08 3.43-1.51 7.13-2.35 10.99-2.6v-73.29l-13.13-2.84v79.81h.01Zm-43.4 62.07v-34.01h31.38v-21.05h-52.42v131.16h52.42v-21.04h-31.38v-34.01h29.88v-21.05h-29.88Zm1.54 132.19v-37.19h-7.58v36.71c0 7.71 3.86 12.12 11.29 12.12s11.29-4.41 11.29-12.12v-36.71h-7.16v37.19c0 3.44-1.52 4.68-3.93 4.68s-3.92-1.24-3.92-4.68h.01Zm-63.01-26.1v5.16h7.16v-4.68c0-7.71-3.86-12.12-11.29-12.12s-11.29 4.41-11.29 12.12v25.07c0 7.71 3.86 12.12 11.29 12.12s11.29-4.41 11.29-12.12v-6.4h-7.16v6.89c0 3.44-1.52 4.68-3.93 4.68s-3.92-1.24-3.92-4.68v-26.03c0-3.44 1.52-4.75 3.92-4.75s3.93 1.31 3.93 4.75v-.01Zm17.13-29.99V215.18h15.6v-21.05H286.7v21.05h15.6v110.11h21.04Zm4.97 67.11h20.04v-6.89h-12.46v-41.32h-7.58v48.21Zm35.17-209.07c.21-.67.47-1.32.67-1.99-1.47.69-2.99 1.36-4.46 1.99h3.79Zm-28.24-40.75 16.46 37.17c4.44-1.76 11.23-4.61 14.63-6.69 7.17-31.22 2.73-63.91-11.88-91.91l-17.44 9.2c3.15 22.46-.83 46.97-1.77 52.23Zm-43.86-85.31c-6.05 1.85-31.57 9.84-45.06 17.14l.84 48.98 40.5 33.04 41.47-15.8c1.09-6.45 4.57-30.03 1.41-50.63-3.23-3.56-19.96-21.51-39.17-32.74l.01.01Zm-99.66-23.94 3.25 23.56 47.72 12.29c13.31-7.37 37.68-15.15 45.65-17.61-.69-5.34-2.62-17.77-6.36-24.48-5.29-1.99-30.35-11.03-48.52-10.99-3 .66-26.99 6.24-41.75 17.23h.01Zm-.4 115.36c-2.84 10.33-4.9 24.3-6.16 34.63h95.04l3.47-21.96-40.22-32.82-52.12 20.15h-.01Zm66.81 160.62v15.97h21.04V194.13h-21.04v53.74L247.8 211.6v-17.47h-21.05v131.16h21.05v-52.05l10.33 36.08v-.01Zm-13.84 76.19v-41.32h-7.58v48.21h20.04v-6.89h-12.46ZM198 279.01v19.43h21.04v-19.43l-7.3-84.88H172.6l-7.3 84.88v19.43h21.04v-19.43H198Zm-19.25-95.69c1.28-10.61 3.43-25.37 6.49-36.44l-27.28-39.25-32.13 10.6c-8.42 16.67-7.75 44.04-7.61 47.87 1.97 5.86 5.07 11.77 8.44 17.22h52.09Zm-17.92 209.07h11.91c7.58 0 11.5-4 11.5-11.43v-3.93c0-5.1-1.58-8.75-5.65-10.33 3.38-1.58 4.89-4.75 4.89-9.71v-1.72c0-7.44-3.38-11.09-11.23-11.09h-11.43v48.21h.01Zm58.21-67.11v-17.41H165.3v17.41h53.74Zm-20.55 55.54c0 7.71 4.06 12.12 11.5 12.12s11.5-4.41 11.5-12.12v-25.07c0-7.71-4.06-12.12-11.5-12.12s-11.5 4.41-11.5 12.12v25.07ZM117.15 83.25c.54 4.16 4.86 17.9 8.44 28.39l31.68-10.45 31.54-42.61-3.25-23.54c-6.35.05-23.34 1-38.47 8.95a133.26 133.26 0 0 0-23.67 28.1c-2.3 3.65-4.37 7.38-6.27 11.16Zm-11.17 87.59c.9 4.22 2.02 8.38 3.32 12.49h9.98c-2.43-4.24-4.66-8.69-6.34-13.2l-6.96.71Zm-.61 133.22c0 2.88.56 5.61 1.69 8.17 1.13 2.57 2.66 4.82 4.6 6.77 1.94 1.94 4.19 3.47 6.76 4.6 2.57 1.13 5.29 1.69 8.17 1.69h9.96c2.88 0 5.6-.56 8.17-1.69 2.57-1.13 4.82-2.66 6.77-4.6 1.94-1.94 3.48-4.2 4.6-6.77 1.13-2.57 1.69-5.29 1.69-8.17V194.14h-52.43v31.76h21.05v-10.71h10.33v88.88l-.19.19h-9.96c-.13 0-.19-.06-.19-.19v-60.13h-21.05v60.13l.03-.01Zm26.34 47.02v41.32h7.58v-41.32h7.92v-6.89H123.8v6.89h7.92-.01Zm-32.3 34.99c-2.41 0-3.92-1.24-3.92-4.68V344.2h-7.58v36.71c0 7.71 3.86 12.12 11.29 12.12s11.29-4.41 11.29-12.12V344.2h-7.16v37.19c0 3.44-1.52 4.68-3.93 4.68h.01Zm-22.6-167.48h21.04v-24.95H76.81v24.95Zm0 106.71h21.04v-99.82H76.81v99.82Zm-15 40.32v-14.53h12.46v-6.89H54.23v48.21h7.58v-19.9h9.78v-6.89h-9.78ZM51.48 183.34h13.13v-76.03l-13.13 2.84V183.34ZM48.07 325.3c2.88 0 5.6-.56 8.17-1.69 2.57-1.13 4.82-2.66 6.77-4.6 1.94-1.94 3.48-4.2 4.6-6.77 1.13-2.57 1.69-5.29 1.69-8.17V194.15H16.87v31.76h21.05V215.2h10.33v88.88l-.19.19H38.1c-.13 0-.19-.06-.19-.19v-60.13H16.87v60.13c0 2.88.56 5.61 1.69 8.17 1.13 2.57 2.66 4.82 4.6 6.77 1.94 1.94 4.19 3.47 6.76 4.6 2.57 1.13 5.29 1.69 8.17 1.69h9.96l.02-.01Zm373.86 83.13h-13.36a150.572 150.572 0 0 1-30.58 66.77l-24.3-66.77h-33.7l33.2 91.22c-5.65 4.4-11.63 8.43-17.95 12.02l-11.96 6.57-39.97-109.81h-33.7l45.58 125.23-30.57 16.78-51.69-142.01h-33.7l56.62 155.56-46.25-26.3-47.04-129.26h-33.7l38.25 105.09-4.76-2.7c-39.31-21.6-66.39-59.34-74.87-102.38H54.12c8.65 47.86 38.39 89.97 81.91 113.89l101.84 57.85 103.88-57.09c42.91-24.39 72.11-66.85 80.21-114.66h-.03Zm1.21-31.38c0-5.1-1.58-8.75-5.65-10.33 3.38-1.58 4.89-4.75 4.89-9.71v-1.72c0-7.44-3.38-11.09-11.23-11.09h-11.43v48.21h11.91c7.58 0 11.5-4 11.5-11.43v-3.93h.01Zm33.99-64.81c1.13-2.57 1.69-5.29 1.69-8.17V249.2h-31.19v-33.82c0-.12.06-.19.19-.19h9.77l.19.19v28.56h21.05v-28.56c0-2.88-.56-5.6-1.69-8.17-1.13-2.57-2.63-4.82-4.51-6.77-1.88-1.94-4.1-3.48-6.67-4.6-2.57-1.13-5.36-1.69-8.36-1.69h-9.77c-3.01 0-5.8.56-8.36 1.69-2.57 1.13-4.79 2.66-6.67 4.6-1.88 1.94-3.38 4.2-4.51 6.77-1.13 2.57-1.69 5.29-1.69 8.17v54.87h31.19v33.82c0 .13-.06.19-.19.19h-9.77c-.13 0-.19-.06-.19-.19v-28.56h-21.05v28.56c0 2.88.56 5.61 1.69 8.17 1.13 2.57 2.63 4.82 4.51 6.77 1.88 1.94 4.1 3.47 6.67 4.6 2.57 1.13 5.36 1.69 8.36 1.69h9.77c3.01 0 5.79-.56 8.36-1.69 2.57-1.13 4.79-2.66 6.67-4.6 1.88-1.94 3.38-4.2 4.51-6.77Zm-42.32 46.49v-2.69c0-3.44-1.17-4.96-3.86-4.96h-3.65v12.74h2.96c2.82 0 4.55-1.24 4.55-5.1v.01Zm-204.8 27.34c2.41 0 3.93-1.31 3.93-4.75v-26.03c0-3.44-1.52-4.75-3.93-4.75s-3.92 1.31-3.92 4.75v26.03c0 3.44 1.52 4.75 3.92 4.75Zm-33.33-5.3v-4.2c0-4.48-1.45-5.86-4.89-5.86h-3.38v14.81h4.34c2.55 0 3.92-1.17 3.92-4.75h.01Zm-.76-22.04v-2.69c0-3.44-1.17-4.96-3.86-4.96h-3.65v12.74h2.96c2.82 0 4.55-1.24 4.55-5.1v.01Zm12.03-96.44h8.46l-4.32-50.51-4.13 50.51h-.01Z"/></g><defs><clipPath id="a"><path fill="#fff" d="M0 0h475.68v599.2H0z"/></clipPath></defs></svg>

<svg width="476" height="600" viewBox="0 0 476 600" fill="none" xmlns="http://www.w3.org/2000/svg">
<g clip-path="url(#clip0_486_26113)">
<path d="M415.56 376.56V380.76C415.56 384.34 414.18 385.51 411.64 385.51H407.3V370.7H410.68C414.12 370.7 415.57 372.08 415.57 376.56H415.56ZM475.69 348.84V389.24C465.1 389.24 456.52 397.82 456.52 408.41H438.75C430.5 462.22 398.05 510.18 349.94 537.52L237.85 599.2L128 536.87C79.15 510.02 46.05 462.38 37.23 408.41H19.17C19.17 397.82 10.59 389.24 0 389.24V348.84C10.24 348.84 18.58 340.81 19.12 330.7C18.08 329.88 17.07 329.02 16.13 328.08C13.15 325.1 10.75 321.59 9.02 317.65C7.23 313.57 6.32 309.19 6.32 304.64V183.33H34.86V96.73L107.09 81.1C109.26 76.74 111.66 72.44 114.3 68.23C157.11 0.109985 247.37 -20.48 315.49 22.34C339.11 37.18 357 57.74 368.53 81.09L440.83 96.74V183.7C443.78 184.11 446.63 184.87 449.31 186.04C453.3 187.79 456.83 190.23 459.79 193.29C462.66 196.26 464.97 199.72 466.67 203.59C468.46 207.67 469.38 212.05 469.38 216.6V304.64C469.38 309.19 468.46 313.57 466.67 317.66C464.98 321.51 462.67 324.98 459.8 327.94C458.8 328.98 457.7 329.92 456.57 330.81C457.16 340.86 465.48 348.84 475.69 348.84ZM411.08 187.12C411.78 186.75 412.48 186.36 413.21 186.04C416.64 184.53 420.34 183.69 424.2 183.44V110.15L411.07 107.31V187.12H411.08ZM367.68 249.19V215.18H399.06V194.13H346.64V325.29H399.06V304.25H367.68V270.24H397.56V249.19H367.68ZM369.22 381.38V344.19H361.64V380.9C361.64 388.61 365.5 393.02 372.93 393.02C380.36 393.02 384.22 388.61 384.22 380.9V344.19H377.06V381.38C377.06 384.82 375.54 386.06 373.13 386.06C370.72 386.06 369.21 384.82 369.21 381.38H369.22ZM306.21 355.28V360.44H313.37V355.76C313.37 348.05 309.51 343.64 302.08 343.64C294.65 343.64 290.79 348.05 290.79 355.76V380.83C290.79 388.54 294.65 392.95 302.08 392.95C309.51 392.95 313.37 388.54 313.37 380.83V374.43H306.21V381.32C306.21 384.76 304.69 386 302.28 386C299.87 386 298.36 384.76 298.36 381.32V355.29C298.36 351.85 299.88 350.54 302.28 350.54C304.68 350.54 306.21 351.85 306.21 355.29V355.28ZM323.34 325.29V215.18H338.94V194.13H286.7V215.18H302.3V325.29H323.34ZM328.31 392.4H348.35V385.51H335.89V344.19H328.31V392.4ZM363.48 183.33C363.69 182.66 363.95 182.01 364.15 181.34C362.68 182.03 361.16 182.7 359.69 183.33H363.48ZM335.24 142.58L351.7 179.75C356.14 177.99 362.93 175.14 366.33 173.06C373.5 141.84 369.06 109.15 354.45 81.15L337.01 90.35C340.16 112.81 336.18 137.32 335.24 142.58ZM291.38 57.27C285.33 59.12 259.81 67.11 246.32 74.41L247.16 123.39L287.66 156.43L329.13 140.63C330.22 134.18 333.7 110.6 330.54 90C327.31 86.44 310.58 68.49 291.37 57.26L291.38 57.27ZM191.72 33.33L194.97 56.89L242.69 69.18C256 61.81 280.37 54.03 288.34 51.57C287.65 46.23 285.72 33.8 281.98 27.09C276.69 25.1 251.63 16.06 233.46 16.1C230.46 16.76 206.47 22.34 191.71 33.33H191.72ZM191.32 148.69C188.48 159.02 186.42 172.99 185.16 183.32H280.2L283.67 161.36L243.45 128.54L191.33 148.69H191.32ZM258.13 309.31V325.28H279.17V194.13H258.13V247.87L247.8 211.6V194.13H226.75V325.29H247.8V273.24L258.13 309.32V309.31ZM244.29 385.5V344.18H236.71V392.39H256.75V385.5H244.29ZM198 279.01V298.44H219.04V279.01L211.74 194.13H172.6L165.3 279.01V298.44H186.34V279.01H197.99H198ZM178.75 183.32C180.03 172.71 182.18 157.95 185.24 146.88L157.96 107.63L125.83 118.23C117.41 134.9 118.08 162.27 118.22 166.1C120.19 171.96 123.29 177.87 126.66 183.32H178.75ZM160.83 392.39H172.74C180.32 392.39 184.24 388.39 184.24 380.96V377.03C184.24 371.93 182.66 368.28 178.59 366.7C181.97 365.12 183.48 361.95 183.48 356.99V355.27C183.48 347.83 180.1 344.18 172.25 344.18H160.82V392.39H160.83ZM219.04 325.28V307.87H165.3V325.28H219.04ZM198.49 380.82C198.49 388.53 202.55 392.94 209.99 392.94C217.43 392.94 221.49 388.53 221.49 380.82V355.75C221.49 348.04 217.43 343.63 209.99 343.63C202.55 343.63 198.49 348.04 198.49 355.75V380.82ZM117.15 83.25C117.69 87.41 122.01 101.15 125.59 111.64L157.27 101.19L188.81 58.58L185.56 35.04C179.21 35.09 162.22 36.04 147.09 43.99C138.15 52.04 130.14 61.41 123.42 72.09C121.12 75.74 119.05 79.47 117.15 83.25ZM105.98 170.84C106.88 175.06 108 179.22 109.3 183.33H119.28C116.85 179.09 114.62 174.64 112.94 170.13L105.98 170.84ZM105.37 304.06C105.37 306.94 105.93 309.67 107.06 312.23C108.19 314.8 109.72 317.05 111.66 319C113.6 320.94 115.85 322.47 118.42 323.6C120.99 324.73 123.71 325.29 126.59 325.29H136.55C139.43 325.29 142.15 324.73 144.72 323.6C147.29 322.47 149.54 320.94 151.49 319C153.43 317.06 154.97 314.8 156.09 312.23C157.22 309.66 157.78 306.94 157.78 304.06V194.14H105.35V225.9H126.4V215.19H136.73V304.07L136.54 304.26H126.58C126.45 304.26 126.39 304.2 126.39 304.07V243.94H105.34V304.07L105.37 304.06ZM131.71 351.08V392.4H139.29V351.08H147.21V344.19H123.8V351.08H131.72H131.71ZM99.41 386.07C97 386.07 95.49 384.83 95.49 381.39V344.2H87.91V380.91C87.91 388.62 91.77 393.03 99.2 393.03C106.63 393.03 110.49 388.62 110.49 380.91V344.2H103.33V381.39C103.33 384.83 101.81 386.07 99.4 386.07H99.41ZM76.81 218.59H97.85V193.64H76.81V218.59ZM76.81 325.3H97.85V225.48H76.81V325.3ZM61.81 365.62V351.09H74.27V344.2H54.23V392.41H61.81V372.51H71.59V365.62H61.81ZM51.48 183.34H64.61V107.31L51.48 110.15V183.33V183.34ZM48.07 325.3C50.95 325.3 53.67 324.74 56.24 323.61C58.81 322.48 61.06 320.95 63.01 319.01C64.95 317.07 66.49 314.81 67.61 312.24C68.74 309.67 69.3 306.95 69.3 304.07V194.15H16.87V225.91H37.92V215.2H48.25V304.08L48.06 304.27H38.1C37.97 304.27 37.91 304.21 37.91 304.08V243.95H16.87V304.08C16.87 306.96 17.43 309.69 18.56 312.25C19.69 314.82 21.22 317.07 23.16 319.02C25.1 320.96 27.35 322.49 29.92 323.62C32.49 324.75 35.21 325.31 38.09 325.31H48.05L48.07 325.3ZM421.93 408.43H408.57C404.03 432.98 393.45 455.92 377.99 475.2L353.69 408.43H319.99L353.19 499.65C347.54 504.05 341.56 508.08 335.24 511.67L323.28 518.24L283.31 408.43H249.61L295.19 533.66L264.62 550.44L212.93 408.43H179.23L235.85 563.99L189.6 537.69L142.56 408.43H108.86L147.11 513.52L142.35 510.82C103.04 489.22 75.96 451.48 67.48 408.44H54.12C62.77 456.3 92.51 498.41 136.03 522.33L237.87 580.18L341.75 523.09C384.66 498.7 413.86 456.24 421.96 408.43H421.93ZM423.14 377.05C423.14 371.95 421.56 368.3 417.49 366.72C420.87 365.14 422.38 361.97 422.38 357.01V355.29C422.38 347.85 419 344.2 411.15 344.2H399.72V392.41H411.63C419.21 392.41 423.13 388.41 423.13 380.98V377.05H423.14ZM457.13 312.24C458.26 309.67 458.82 306.95 458.82 304.07V249.2H427.63V215.38C427.63 215.26 427.69 215.19 427.82 215.19H437.59L437.78 215.38V243.94H458.83V215.38C458.83 212.5 458.27 209.78 457.14 207.21C456.01 204.64 454.51 202.39 452.63 200.44C450.75 198.5 448.53 196.96 445.96 195.84C443.39 194.71 440.6 194.15 437.6 194.15H427.83C424.82 194.15 422.03 194.71 419.47 195.84C416.9 196.97 414.68 198.5 412.8 200.44C410.92 202.38 409.42 204.64 408.29 207.21C407.16 209.78 406.6 212.5 406.6 215.38V270.25H437.79V304.07C437.79 304.2 437.73 304.26 437.6 304.26H427.83C427.7 304.26 427.64 304.2 427.64 304.07V275.51H406.59V304.07C406.59 306.95 407.15 309.68 408.28 312.24C409.41 314.81 410.91 317.06 412.79 319.01C414.67 320.95 416.89 322.48 419.46 323.61C422.03 324.74 424.82 325.3 427.82 325.3H437.59C440.6 325.3 443.38 324.74 445.95 323.61C448.52 322.48 450.74 320.95 452.62 319.01C454.5 317.07 456 314.81 457.13 312.24ZM414.81 358.73V356.04C414.81 352.6 413.64 351.08 410.95 351.08H407.3V363.82H410.26C413.08 363.82 414.81 362.58 414.81 358.72V358.73ZM210.01 386.07C212.42 386.07 213.94 384.76 213.94 381.32V355.29C213.94 351.85 212.42 350.54 210.01 350.54C207.6 350.54 206.09 351.85 206.09 355.29V381.32C206.09 384.76 207.61 386.07 210.01 386.07ZM176.68 380.77V376.57C176.68 372.09 175.23 370.71 171.79 370.71H168.41V385.52H172.75C175.3 385.52 176.67 384.35 176.67 380.77H176.68ZM175.92 358.73V356.04C175.92 352.6 174.75 351.08 172.06 351.08H168.41V363.82H171.37C174.19 363.82 175.92 362.58 175.92 358.72V358.73ZM187.95 262.29H196.41L192.09 211.78L187.96 262.29H187.95Z" fill="white"/>
</g>
<defs>
<clipPath id="clip0_486_26113">
<rect width="475.68" height="599.2" fill="white"/>
</clipPath>
</defs>
</svg>
